X:1
T:Title
%%score { 1 | ( 2 3 ) }
L:1/8
Q:1/4=78
M:6/8
K:G
V:1 treble nm="Grand Piano"
V:2 treble 
V:3 treble 
V:1
 [DB]>BB BGA | BcG .B3 | [CA]AA FGA | ddc .[DB]3 | [DB]>BB BGA | BcG .B3 | [^CA]A[CA] [Dd]AF | %7
w: Adam~Geibel * * * * *|||||||
 [A,A]B^c .d3 | [Fd]>[Fd][Fd] [Fd][FA][GB] | [Ac][GB][FA] .[GB]3 | [^DB]>[DB][DB] [DB][DF][EG] | %11
w: ||||
 [FA][EG][^DF] .G3 | G>GG [Ec][Ec][Ec] | BcB [A,CA]2 E | [_B,EG]>[B,EG][B,EG] [Ge][Gd][DGB] | %15
w: ||||
 [^CGA][DFB]>[=CFA] .[B,DG]3 |] %16
w: |
V:2
 z z/ D/D DB,C | DE^D .=D3 | z CC A,B,C | F[K:treble]FE .G,3 | z z/ D/D DB,C | DE^D .=D3 | %6
 z ^CG, z DA, | z ^G,=G, .[D,F,]3 | [D,A,]>[D,A,][D,A,] [D,A,][D,D][D,D] | %9
 [D,D][D,D][D,D] .[G,D]3 | [B,,B,]>[B,,B,][B,,B,] [B,,B,][B,,B,][B,,B,] | %11
 [B,,B,][B,,B,][B,,B,] .[E,B,E]3 | [G,B,=F]>[G,B,F][G,B,F][K:bass] [C,C][C,G,][C,G,] | %13
 [E,^G,D][E,G,D][E,G,D] A,,2 E, | ^C,>C,C, [D,B,][D,B,]D, | A,,D,>D, .G,,3 |] %16
V:3
 G,6- | G,6 | D,6- | D,3[K:treble] z3 | G,6- | G,6 | .A,3 .F,3 | A,,3 z3 | x6 | x6 | x6 | x6 | %12
 x3[K:bass] x3 | x6 | x6 | x6 |] %16

